material/.icons/material/roller-skate.svg

<svg xmlns="http://www.w3.org/2000/svg" viewBox="0 0 24 24"><path d="M19 15s0 1-2 1H4V3h7l.21 1.5H9.24V6h2.19l.21 1.5h-2.4V9h2.62l.14 1h2s5 0 5 5M6.5 17A2.5 2.5 0 004 19.5 2.5 2.5 0 006.5 22 2.5 2.5 0 009 19.5 2.5 2.5 0 006.5 17m10 0a2.5 2.5 0 00-2.5 2.5 2.5 2.5 0 002.5 2.5 2.5 2.5 0 002.5-2.5 2.5 2.5 0 00-2.5-2.5z"/></svg>

<?xml version="1.0" encoding="UTF-8"?><!DOCTYPE svg PUBLIC "-//W3C//DTD SVG 1.1//EN" "http://www.w3.org/Graphics/SVG/1.1/DTD/svg11.dtd"><svg xmlns="http://www.w3.org/2000/svg" xmlns:xlink="http://www.w3.org/1999/xlink" version="1.1" id="mdi-roller-skate" width="24" height="24" viewBox="0 0 24 24"><path d="M19,15C19,15 19,16 17,16C15,16 4,16 4,16V3H11L11.21,4.5H9.24V6H11.43L11.64,7.5H9.24V9H11.86L12,10H14C14,10 19,10 19,15M6.5,17A2.5,2.5 0 0,0 4,19.5A2.5,2.5 0 0,0 6.5,22A2.5,2.5 0 0,0 9,19.5A2.5,2.5 0 0,0 6.5,17M16.5,17A2.5,2.5 0 0,0 14,19.5A2.5,2.5 0 0,0 16.5,22A2.5,2.5 0 0,0 19,19.5A2.5,2.5 0 0,0 16.5,17Z" /></svg>
